assets/icons/thumbs-up.svg

<svg width="65" height="64" viewBox="0 0 65 64" fill="none" xmlns="http://www.w3.org/2000/svg">
<g clip-path="url(#clip0_973_141)">
<path d="M11.1665 23.4673H2.63333C1.45525 23.4673 0.5 24.4224 0.5 25.6006V59.7328C0.5 60.9109 1.4551 61.8662 2.63333 61.8662H11.1664C12.3445 61.8662 13.2997 60.9111 13.2997 59.7328V25.6005C13.2997 24.4224 12.3448 23.4673 11.1665 23.4673Z" fill="#F6F6F6"/>
<path d="M64.4584 29.1219C64.0821 25.8126 60.9908 23.4671 57.6602 23.4671H41.0286C42.442 20.9362 43.2007 13.7778 43.167 10.8536C43.1112 6.01317 39.1028 2.13428 34.2622 2.13428H32.5019C31.3228 2.13428 30.3686 3.08839 30.3686 4.26761C30.3686 9.20068 28.4477 18.1048 24.825 21.7276C22.3867 24.166 20.3022 25.0495 17.5688 26.4155V58.4252C21.7536 59.82 27.0669 61.8661 35.1655 61.8661H49.1203C53.7184 61.8661 57.2996 57.6075 55.5178 53.1081C58.2324 52.3686 60.2343 49.879 60.2343 46.9332C60.2343 46.1018 60.0739 45.3061 59.7843 44.5749C64.3589 43.3285 66.0427 37.6801 62.8677 34.1334C64.0341 32.8303 64.6774 31.0479 64.4584 29.1219Z" fill="#F6F6F6"/>
</g>
<defs>
<clipPath id="clip0_973_141">
<rect width="64" height="64" fill="white" transform="translate(0.5)"/>
</clipPath>
</defs>
</svg>

<svg width="65" height="64" fill="none" xmlns="http://www.w3.org/2000/svg"><g clip-path="url(#a)" fill="#F6F6F6"><path d="M11.166 23.467H2.633A2.133 2.133 0 0 0 .5 25.601v34.132c0 1.178.955 2.133 2.133 2.133h8.533a2.133 2.133 0 0 0 2.134-2.133V25.6a2.133 2.133 0 0 0-2.134-2.133ZM64.458 29.122c-.376-3.31-3.467-5.655-6.798-5.655H41.03c1.413-2.53 2.172-9.69 2.138-12.613-.056-4.84-4.064-8.72-8.905-8.72h-1.76c-1.18 0-2.133.954-2.133 2.134 0 4.933-1.921 13.837-5.544 17.46-2.438 2.438-4.523 3.321-7.256 4.688v32.01c4.185 1.394 9.498 3.44 17.597 3.44H49.12c4.598 0 8.18-4.258 6.398-8.758a6.41 6.41 0 0 0 4.716-6.175c0-.831-.16-1.627-.45-2.358 4.575-1.247 6.259-6.895 3.084-10.442a6.387 6.387 0 0 0 1.59-5.011Z"/></g><defs><clipPath id="a"><path fill="#fff" transform="translate(.5)" d="M0 0h64v64H0z"/></clipPath></defs></svg>
